!!!COM: Anonymous
!!!OPR: Missa Gross senen
!!!ONM: 2
!!!OTL: Gloria
!!!AGN: Mass; Gloria
!!!SCT: Ano1026b
!!!SCA: Ano1026b
!!!SMS: Trent 89
!!!folio-OPR:
!!!folio:
!!!voices: 4
**kern	**text	**kern	**text	**kern	**text	**kern	**text
*staff4	*staff4	*staff3	*staff3	*staff2	*staff2	*staff1	*staff1
*Ivox	*	*Ivox	*	*Ivox	*	*Ivox	*
*I"Bassus	*	*I"Tenor	*	*I"Altus	*	*I"Discantus	*
*I'B	*	*I'T	*	*I'A	*	*I'D	*
*>[A,B,C,D]	*>[A,B,C,D]	*>[A,B,C,D]	*>[A,B,C,D]	*>[A,B,C,D]	*>[A,B,C,D]	*>[A,B,C,D]	*>[A,B,C,D]
*>A	*>A	*>A	*>A	*>A	*>A	*>A	*>A
*clefF4	*	*clefGv2	*	*clefGv2	*	*clefG2	*
*k[b-e-]	*	*k[b-]	*	*k[b-]	*	*k[b-]	*
*M3/1	*	*M3/1	*	*M3/1	*	*M3/1	*
*met(O)	*	*met(C.)	*	*met(O)	*	*met(O)	*
*MM300	*	*MM300	*	*MM300	*	*MM300	*
=1	=1	=1	=1	=1	=1	=1	=1
!!!OMD: Et in terra pax
!!section: Et in terra pax
*	*	*rscale:1/4	*	*	*	*	*
!	!	!LO:TX:Z=8:X=-40:t=T&colon; "In triplo crescere debet" [two levels of augmentation]	!	!	!	!	!
!	!	!LO:N:vis=1.	!	!	!	!	!
0.r	.	0.r	.	0.G	Et	0g	Et
.	.	.	.	.	.	1b-	in
=2	=2	=2-	=2	=2	=2	=2	=2
0.r	.	0.ryy	.	1.d	in	1b-	ter-
.	.	.	.	.	.	0a	-ra
.	.	.	.	2c	ter-	.	.
.	.	.	.	1d	-ra	.	.
=3	=3	=3-	=3	=3	=3	=3	=3
!	!	!LO:N:vis=1.	!	!	!	!	!
0.r	.	0.r	.	1.e-i	pax	1g	pax
.	.	.	.	.	.	1r	.
.	.	.	.	2d	.	.	.
.	.	.	.	1d	ho-	1b-	ho-
=4	=4	=4-	=4	=4	=4	=4	=4
0.r	.	0.ryy	.	1.c	-mi-	1a	-mi-
.	.	.	.	.	.	1.g	.
.	.	.	.	2B-	.	.	.
.	.	.	.	2e-i	.	.	.
.	.	.	.	2d	.	[2f	.
=5	=5	=5	=5	=5	=5	=5	=5
!	!	!LO:N:vis=1.	!	!	!	!	!
0.r	.	0.r	.	1.B-	.	2f]	.
.	.	.	.	.	.	2.b-	.
.	.	.	.	.	.	4a	.
.	.	.	.	2A	.	2f	.
.	.	.	.	2B-	-ni-	2g	-ni-
.	.	.	.	4A	.	4f	.
.	.	.	.	4G	.	4g	.
=6	=6	=6-	=6	=6	=6	=6	=6
0.r	.	0.ryy	.	1F	-bus	1a	-bus
.	.	.	.	1.G	bo-	1r	.
.	.	.	.	.	.	1d	bo-
.	.	.	.	4F	.	.	.
.	.	.	.	4E	.	.	.
=7	=7	=7-	=7	=7	=7	=7	=7
!	!	!LO:N:vis=1.	!	!	!	!	!
0.r	.	0.r	.	1D	-ne	1f	-ne
.	.	.	.	1r	.	1.g	vo-
.	.	.	.	[1B-	vo-	.	.
.	.	.	.	.	.	4f	.
.	.	.	.	.	.	4e	.
=8	=8	=8-	=8	=8	=8	=8	=8
0.r	.	0.ryy	.	2B-]	.	2d	.
.	.	.	.	2A	.	2.f	-lun-
.	.	.	.	2B-	-lun-	.	.
.	.	.	.	.	.	4e	.
.	.	.	.	4A	.	2c	.
.	.	.	.	4G	.	.	.
.	.	.	.	2F	.	2d	-ta-
.	.	.	.	[2G	-ta-	[2B-	.
=9	=9	=9	=9	=9	=9	=9	=9
!	!	!LO:N:vis=1.	!	!	!	!	!
0.r	.	0.r	.	4G]	.	4B-]	.
.	.	.	.	4F	.	4c	.
.	.	.	.	2.B-	.	2d	.
.	.	.	.	.	.	1G	.
.	.	.	.	4A	.	.	.
.	.	.	.	1G	.	.	.
.	.	.	.	.	.	1A	.
.	.	.	.	2F#i	.	.	.
=10	=10	=10-	=10	=10	=10	=10	=10
0.r	.	0.ryy	.	0G	-tis.	0.G	-tis.
.	.	.	.	1r	.	.	.
=11	=11	=11-	=11	=11	=11	=11	=11
!	!	!LO:N:vis=1.	!	!	!	!	!
[0.G	Lau-	0.r	.	1G	Lau-	0.r	.
.	.	.	.	1.B-	-da-	.	.
.	.	.	.	2B-	-mus	.	.
=12	=12	=12-	=12	=12	=12	=12	=12
0.G]	.	0.ryy	.	1G	te,	1G	Lau-
.	.	.	.	2d	be-	1.B-	-da-
.	.	.	.	2d	-ne-	.	.
.	.	.	.	2d	-di-	.	.
.	.	.	.	2d	-ci-	2B-	-mus
=13	=13	=13	=13	=13	=13	=13	=13
!	!	!LO:N:vis=1.	!	!	!	!	!
[0.GG	-da-	[y0.G	ad-	1B-	-mus	1G	te,
.	.	.	.	1G	te,	2d	be-
.	.	.	.	.	.	2d	-ne-
.	.	.	.	1r	.	2d	-di-
.	.	.	.	.	.	2d	-ci-
=14	=14	=14-	=14	=14	=14	=14	=14
0GG]	.	0.G]yy	.	1.G	ad-	1B-	-mus
.	.	.	.	.	.	1G	te,
.	.	.	.	2.B-	-o-	.	.
1r	.	.	.	.	.	1r	.
.	.	.	.	4c	.	.	.
.	.	.	.	2d	.	.	.
=15	=15	=15-	=15	=15	=15	=15	=15
1r	.	0G	-o-	2e-i	-ra-	1.G	ad-
.	.	.	.	2.d	-mus	.	.
1GG	-mus	.	.	.	.	.	.
.	.	.	.	4c	.	.	.
.	.	.	.	4B-	.	2.B-	-o-
.	.	.	.	4A	.	.	.
!	!	!LO:N:vis=1	!	!	!	!	!
2C	te,	[y1G	-ra-	1G	te.	.	.
.	.	.	.	.	.	4c	.
2BB-	.	.	.	.	.	2d	.
=16	=16	=16-	=16	=16	=16	=16	=16
0.GG	.	0.G]yy	.	2r	.	2e-i	-ra-
.	.	.	.	1D	Glo-	2.d	-mus
.	.	.	.	.	.	4c	.
.	.	.	.	2.G	-ri-	4B-	.
.	.	.	.	.	.	4A	.
.	.	.	.	.	.	1G	te.
.	.	.	.	4A	.	.	.
.	.	.	.	[2B-	.	.	.
=17	=17	=17	=17	=17	=17	=17	=17
!	!	!LO:N:vis=1	!	!	!	!	!
1G	Glo-	[y0.B-	.	4B-]	.	2r	.
.	.	.	.	4G	.	.	.
.	.	.	.	2.B-	.	1g	Glo-
2E-	-ri-	.	.	.	.	.	.
.	.	.	.	4c	.	.	.
2D	-fi-	.	.	1d	.	2f	-ri-
2BB-	-ca-	.	.	.	.	2d	-fi-
2E-	.	.	.	2G	-fi-	2g	.
=18	=18	=18-	=18	=18	=18	=18	=18
2D	.	1B-]yy	.	1d	-ca-	2f	.
2BB-	.	.	.	.	.	1b-	-ca-
1F	.	0c	-mus	2c	.	.	.
.	.	.	.	4B-	.	2a	.
.	.	.	.	4A	.	.	.
1E-	-mus	.	.	1G	-mus	1g	-mus
=19	=19	=19-	=19	=19	=19	=19	=19
1D	te.	0d	te.	2A	te.	0f	te.
.	.	.	.	2.B-	.	.	.
1r	.	.	.	.	.	.	.
.	.	.	.	4A	.	.	.
.	.	.	.	2F	.	.	.
!	!	!LO:N:vis=2	!	!	!	!	!
1GG	Gra-	[y1B-	Gra-	2G	.	2r	.
.	.	.	.	4F	.	[2b-	Gra-
.	.	.	.	4E	.	.	.
=20	=20	=20-	=20	=20	=20	=20	=20
1BB-	-ti-	1B-]yy	.	1D	.	4b-]	.
.	.	.	.	.	.	4a	.
.	.	.	.	.	.	2f	-ti-
2E-	-as	0G	-ti-	2B-	Gra-	2.g	-as
4D	.	.	.	2B-	-ti-	.	.
4C	.	.	.	.	.	8fL	.
.	.	.	.	.	.	8eJ	.
2BB-	.	.	.	1B-	-as	2d	.
2E-	a-	.	.	.	.	2g	a-
=21	=21	=21	=21	=21	=21	=21	=21
!	!	!LO:N:vis=1.	!	!	!	!	!
2C	-gi-	[y0.A	-as	1A	a-	2e	-gi-
1D	-mus	.	.	.	.	2.f	-mus
.	.	.	.	2F	-gi-	.	.
.	.	.	.	.	.	4g	.
2C	ti-	.	.	2G	-mus	1a	.
2AA	.	.	.	2A	ti-	.	.
2D	.	.	.	2B-	.	2f	ti-
=22	=22	=22-	=22	=22	=22	=22	=22
2C	.	0.A]yy	.	1c	-bi	2e	.
1F	.	.	.	.	.	2.a	.
.	.	.	.	1r	.	.	.
.	.	.	.	.	.	4g	.
2G	.	.	.	.	.	1g	.
1D	.	.	.	2d	prop-	.	.
.	.	.	.	2d	-ter	2f#i	.
=23	=23	=23-	=23	=23	=23	=23	=23
1GG	.	0G	a-	1d	ma-	2g	.
.	.	.	.	.	.	2d	.
1C	.	.	.	1c	.	1e	-bi
!	!	!LO:N:vis=1	!	!	!	!	!
1D	-bi	[y1F	-gi-	1A	.	2r	.
.	.	.	.	.	.	[2d	prop-
=24	=24	=24-	=24	=24	=24	=24	=24
1r	.	0.F]yy	.	2D	.	2d]	.
.	.	.	.	2.A	.	2c	.
1D	prop-	.	.	.	.	2A	-ter
.	.	.	.	4F	.	.	.
.	.	.	.	2A	.	1d	ma-
2BB-	-ter	.	.	2B-	.	.	.
2AA	.	.	.	2c	.	2c	.
=25	=25	=25	=25	=25	=25	=25	=25
!	!	!LO:N:vis=1	!	!	!	!	!
2BB-	ma-	[y0.D	-mus	2.B-	-gnam	2d	-gnam
2C	-gnam	.	.	.	.	2.f	glo-
.	.	.	.	8AL	.	.	.
.	.	.	.	8GJ	.	.	.
2.D	glo-	.	.	1A	.	.	.
.	.	.	.	.	.	4e	.
.	.	.	.	.	.	2.f	.
4Eni	.	.	.	.	.	.	.
1F	-ri-	.	.	2D	glo-	.	.
.	.	.	.	.	.	4g	.
.	.	.	.	[2d	-ri-	2a	-ri-
=26	=26	=26-	=26	=26	=26	=26	=26
2BB-	-am	1D]yy	.	2d]	.	2b-	-am
2C	.	.	.	2c	.	1a	tu-
1D	.	0r	.	2A	-am	.	.
.	.	.	.	1d	tu-	2f	.
1AA	tu-	.	.	.	.	1e	.
.	.	.	.	2c#i	.	.	.
=27	=27	=27-	=27	=27	=27	=27	=27
1A	-am.	0D	de-	2.d	-am.	1d	-am,
.	.	.	.	8cL	.	.	.
.	.	.	.	8B-J	.	.	.
1r	.	.	.	1A	.	1r	.
!	!	!LO:N:vis=2	!	!	!	!	!
1D	Do-	[y1F	-us	2r	.	1a	Do-
.	.	.	.	2d	Do-	.	.
=28	=28	=28-	=28	=28	=28	=28	=28
1A	-mi-	1F]yy	.	2c	-mi-	1a	-mi-
.	.	.	.	2f	-ne	.	.
2G	-ne	0G	.	4e	de-	2b-	-ne
.	.	.	.	4d	.	.	.
2F	.	.	.	1d	.	2a	.
1Eni	de-	.	.	.	.	1g	de-
.	.	.	.	2c#i	.	.	.
=29	=29	=29	=29	=29	=29	=29	=29
!	!	!LO:N:vis=1.	!	!	!	!	!
2.D	.	[y0.A	pa-	1d	-us,	1f	-us,
4C	.	.	.	.	.	.	.
2AA	.	.	.	1r	.	2r	.
1D	.	.	.	.	.	1f	rex
.	.	.	.	2d	rex	.	.
2C	.	.	.	2e	.	2e	.
=30	=30	=30-	=30	=30	=30	=30	=30
2D	.	0.A]yy	.	2.f	.	2d	ce-
1F	.	.	.	.	.	1a	-les-
.	.	.	.	8eL	.	.	.
.	.	.	.	8dJ	.	.	.
.	.	.	.	1c	.	.	.
2G	.	.	.	.	.	2.g	.
1D	.	.	.	[1d	.	.	.
.	.	.	.	.	.	4f#i	.
.	.	.	.	.	.	4f#i	.
.	.	.	.	.	.	4e	.
=31	=31	=31-	=31	=31	=31	=31	=31
!	!	!LO:N:vis=1.	!	!	!	!	!
0.GG	-us,	[y0.G	-ter	2d]	.	0.g	-tis,
.	.	.	.	1B-	.	.	.
.	.	.	.	2c	.	.	.
.	.	.	.	1d	ce-	.	.
=32	=32	=32-	=32	=32	=32	=32	=32
1r	.	0.G]yy	.	1G	-les-	0.r	.
1r	.	.	.	2B-	.	.	.
.	.	.	.	1d	.	.	.
[1G	rex	.	.	.	.	.	.
.	.	.	.	2B-	.	.	.
=33	=33	=33	=33	=33	=33	=33	=33
!	!	!LO:N:vis=1	!	!	!	!	!
1G]	.	[y0.d	om-	2G	.	0.r	.
.	.	.	.	2.B-	.	.	.
1D	ce-	.	.	.	.	.	.
.	.	.	.	4A	.	.	.
.	.	.	.	2F	.	.	.
1GG	-les-	.	.	2G	.	.	.
.	.	.	.	[2D	.	.	.
=34	=34	=34-	=34	=34	=34	=34	=34
1D	.	1d]yy	.	4D]	.	1r	.
.	.	.	.	4E	.	.	.
.	.	.	.	4F	.	.	.
.	.	.	.	4G	.	.	.
0AA	-tis,	0c	.	2A	.	1r	.
.	.	.	.	4G	.	.	.
.	.	.	.	4F	.	.	.
.	.	.	.	1E	.	1a	de-
=35	=35	=35-	=35	=35	=35	=35	=35
2r	.	0d	-ni-	0D	-tis,	1f	-us
2BB-	de-	.	.	.	.	.	.
2GG	-us	.	.	.	.	2.b-	pa-
2.BB-	pa-	.	.	.	.	.	.
.	.	.	.	.	.	4a	.
!	!	!LO:N:vis=2	!	!	!	!	!
.	.	[y1B-	.	1r	.	4g	.
4C	.	.	.	.	.	4f	.
[2E-	.	.	.	.	.	[2g	.
=36	=36	=36-	=36	=36	=36	=36	=36
4E-]	.	1B-]yy	.	1r	.	4g]	.
4D	.	.	.	.	.	4f	.
1G	.	.	.	.	.	4e-i	.
.	.	.	.	.	.	4d	.
.	.	0G	.	1r	.	2e-i	.
2F	.	.	.	.	.	1d	.
1E-	.	.	.	1G	de-	.	.
.	.	.	.	.	.	2c	.
=37	=37	=37	=37	=37	=37	=37	=37
!	!	!LO:N:vis=1.	!	!	!	!	!
0D	-ter	[y0.A	-po-	1F	-us	1d	-ter
.	.	.	.	2F	pa-	2r	.
.	.	.	.	1D	-ter	1f	om-
1r	.	.	.	.	.	.	.
.	.	.	.	2C	om-	2e	.
=38	=38	=38-	=38	=38	=38	=38	=38
1.D	om-	0.A]yy	.	2.F	.	2d	.
.	.	.	.	.	.	1f	.
.	.	.	.	4G	.	.	.
.	.	.	.	1A	-ni-	.	.
2Eni	.	.	.	.	.	2g	.
1F	.	.	.	1D	-po-	1a	.
=39	=39	=39-	=39	=39	=39	=39	=39
2.G	-ni-	[0.Gl	-tens.	1d	-tens,	2.b-	-ni-
4F	.	.	.	.	.	4a	.
2E-	.	.	.	2r	.	2g	.
2D	.	.	.	2B-	om-	2f	.
2C	-po-	.	.	2.c	-ni-	1e-i	-po-
4BB-	.	.	.	.	.	.	.
4AA	.	.	.	4d	-po-	.	.
=40	=40	=40-	=40	=40	=40	=40	=40
[0.GGl	-tens.	0.G_	.	0B-	-tens.	0.d	-tens.
.	.	.	.	[1dl	.	.	.
=41	=41	=41	=41	=41	=41	=41	=41
0.GG]	.	0.G]	.	0.d]	.	0.gl	.
*	*	*rscale:1	*	*	*	*	*
!!LO:LB:i:g=z
=42||	=42||	=42||	=42||	=42||	=42||	=42||	=42||
*>B	*>B	*>B	*>B	*>B	*>B	*>B	*>B
*clefF4	*	*clefGv2	*	*clefGv2	*	*clefG2	*
*k[b-e-]	*	*k[b-]	*	*k[b-]	*	*k[b-]	*
*M3/1	*	*M3/1	*	*M3/1	*	*M3/1	*
*met(O)	*	*met(O)	*	*met(O)	*	*met(O)	*
*MM300	*	*MM300	*	*MM300	*	*MM300	*
!!!OMD: Domine fili
!!section: Domine fili
0.r	.	0.r	.	1.G	Do-	1.g	Do-
.	.	.	.	2B-	-mi-	2g	-mi-
.	.	.	.	2A	-ne	1f	-ne
.	.	.	.	[2d	fi-	.	.
=43	=43	=43	=43	=43	=43	=43	=43
0.r	.	0.r	.	2d]	.	1e	fi-
.	.	.	.	2c#i	.	.	.
.	.	.	.	0d	-li	1d	-li
.	.	.	.	.	.	2r	.
.	.	.	.	.	.	2f	u-
=44	=44	=44	=44	=44	=44	=44	=44
0.r	.	0.r	.	2r	.	2e	.
.	.	.	.	2B-	u-	2d	-ni-
.	.	.	.	2A	.	2f	-ge-
.	.	.	.	2G	-ni-	2.b-	.
.	.	.	.	2B-	-ge-	.	.
.	.	.	.	.	.	4a	.
.	.	.	.	[2e-	.	[2g	.
=45	=45	=45	=45	=45	=45	=45	=45
0.r	.	0.r	.	4e-]	.	4g]	.
.	.	.	.	4d	.	4f	.
.	.	.	.	2.d	.	2d	.
.	.	.	.	.	.	1e-i	.
.	.	.	.	4B-	.	.	.
.	.	.	.	2c	.	.	.
.	.	.	.	2.d	.	2.d	.
.	.	.	.	4c	.	4eni	.
=46	=46	=46	=46	=46	=46	=46	=46
0.r	.	0.r	.	2d	.	2f	.
.	.	.	.	2B-	.	2.g	.
.	.	.	.	1A	.	.	.
.	.	.	.	.	.	4e	.
.	.	.	.	.	.	2f	.
.	.	.	.	2G	.	4e	.
.	.	.	.	.	.	4d	.
.	.	.	.	2E	.	2c	.
=47	=47	=47	=47	=47	=47	=47	=47
0.r	.	0.r	.	2F	.	2.d	.
.	.	.	.	1D	.	.	.
.	.	.	.	.	.	4c	.
.	.	.	.	.	.	2d	.
.	.	.	.	1G	.	2B-	.
.	.	.	.	.	.	1A	-ni-
.	.	.	.	2F#i	-ni-	.	.
=48	=48	=48	=48	=48	=48	=48	=48
0.r	.	0.r	.	[0.G	-te,	0G	-te,
.	.	.	.	.	.	1r	.
=49	=49	=49	=49	=49	=49	=49	=49
0.r	.	0.r	.	0G]	.	1d	u-
.	.	.	.	.	.	2B-	-ni-
.	.	.	.	.	.	2.e-	-ge-
.	.	.	.	1r	.	.	.
.	.	.	.	.	.	4d	.
.	.	.	.	.	.	[2d	-ni-
=50	=50	=50	=50	=50	=50	=50	=50
0.r	.	0.r	.	1d	u-	4d]	.
.	.	.	.	.	.	4c	.
.	.	.	.	.	.	4B-	.
.	.	.	.	.	.	4A	.
.	.	.	.	2B-	-ni-	1G	-te,
.	.	.	.	2.e-i	-ge-	.	.
.	.	.	.	.	.	2r	.
.	.	.	.	4d	.	.	.
.	.	.	.	[2d	-ni-	[2G	Je-
=51	=51	=51	=51	=51	=51	=51	=51
0.r	.	0.r	.	4d]	.	4G]	.
.	.	.	.	4c	.	4A	.
.	.	.	.	4B-	.	4B-	.
.	.	.	.	4A	.	4c	.
.	.	.	.	1G	-te,	2d	.
.	.	.	.	.	.	2e	.
.	.	.	.	2r	.	2d	-su
.	.	.	.	[2G	Je-	[2g	Chri-
=52	=52	=52	=52	=52	=52	=52	=52
0.r	.	0.r	.	4G]	.	4g]	.
.	.	.	.	4A	.	4f	.
.	.	.	.	4B-	.	4d	.
.	.	.	.	4c	.	4e	.
.	.	.	.	2d	.	2f	.
.	.	.	.	2e-i	.	2g	.
.	.	.	.	2d	-su	2b-	.
.	.	.	.	[2c	Chri-	[2a	.
=53	=53	=53	=53	=53	=53	=53	=53
0.r	.	0.r	.	4c]	.	4a]	.
.	.	.	.	4B-	.	4g	.
.	.	.	.	2A	.	2cc	.
.	.	.	.	2G	.	2.b-	.
.	.	.	.	2B-	.	.	.
.	.	.	.	.	.	8aL	.
.	.	.	.	.	.	8gJ	.
.	.	.	.	2.A	.	2.f	.
.	.	.	.	4B-	.	4g	.
=54	=54	=54	=54	=54	=54	=54	=54
0.r	.	0.r	.	2c	.	2a	.
.	.	.	.	2d	.	2.d	.
.	.	.	.	2G	.	.	.
.	.	.	.	.	.	4e	.
.	.	.	.	2F	.	1f	-ste,
.	.	.	.	2.B-	.	.	.
.	.	.	.	.	.	2B-	.
.	.	.	.	4A	.	.	.
=55	=55	=55	=55	=55	=55	=55	=55
0.r	.	0.r	.	4G	.	2r	.
.	.	.	.	4F	.	.	.
.	.	.	.	2.G	.	2.b-	Chri-
.	.	.	.	4F	.	4a	.
.	.	.	.	4E	.	4g	.
.	.	.	.	4D	.	4f	.
.	.	.	.	2.E	.	2.g	.
.	.	.	.	4C	.	4f	.
=56	=56	=56	=56	=56	=56	=56	=56
0.r	.	0.r	.	2.G	.	4e	.
.	.	.	.	.	.	4d	.
.	.	.	.	.	.	2.e	.
.	.	.	.	4F	.	.	.
.	.	.	.	2G	.	.	.
.	.	.	.	.	.	4d	.
.	.	.	.	2D	.	1d	.
.	.	.	.	1E	.	.	.
.	.	.	.	.	.	2c#i	.
=57	=57	=57	=57	=57	=57	=57	=57
0.r	.	0.r	.	0D	-ste.	0d	-ste.
.	.	.	.	1r	.	1r	.
=58	=58	=58	=58	=58	=58	=58	=58
1GG	Do-	0.r	.	1G	Do-	0.r	.
2BB-	-mi-	.	.	2F	-mi-	.	.
2BB-	-ne	.	.	2D	-ne	.	.
1C	de-	.	.	1E	de-	.	.
=59	=59	=59	=59	=59	=59	=59	=59
0D	-us,	0.r	.	1D	-us,	0.r	.
.	.	.	.	2r	.	.	.
.	.	.	.	2F	a-	.	.
2r	.	.	.	2G	-gnus	.	.
2C	a-	.	.	2A	.	.	.
=60	=60	=60	=60	=60	=60	=60	=60
2D	-gnus	0.r	.	2B-	.	0.r	.
2Eni	.	.	.	2.c	de-	.	.
2F	de-	.	.	.	.	.	.
.	.	.	.	4B-	.	.	.
2BB-	.	.	.	1B-	.	.	.
1C	.	.	.	.	.	.	.
.	.	.	.	2A	.	.	.
=61	=61	=61	=61	=61	=61	=61	=61
1BB-	-i,	0.r	.	2.B-	.	0.r	.
.	.	.	.	8AL	.	.	.
.	.	.	.	8GJ	.	.	.
2r	.	.	.	2F	.	.	.
2D	fi-	.	.	2A	.	.	.
2Eni	-li-	.	.	1G	.	.	.
2Eni	-us	.	.	.	.	.	.
=62	=62	=62	=62	=62	=62	=62	=62
1F	pa-	0.r	.	1F	-i,	0.r	.
2G	.	.	.	2r	.	.	.
2D	.	.	.	2B-	fi-	.	.
1Eni	.	.	.	2c	-li-	.	.
.	.	.	.	2c	-us	.	.
=63	=63	=63	=63	=63	=63	=63	=63
2.D	.	0.r	.	2d	pa-	0.r	.
.	.	.	.	4c	.	.	.
4Eni	.	.	.	4B-	.	.	.
2F	.	.	.	2A	.	.	.
1G	.	.	.	2.B-	.	.	.
.	.	.	.	4A	.	.	.
2D	.	.	.	2F	.	.	.
=64	=64	=64	=64	=64	=64	=64	=64
2E-i	.	0.r	.	2G	.	0.r	.
2C	.	.	.	2A	.	.	.
2D	.	.	.	2D	.	.	.
2GG	.	.	.	1G	.	.	.
1AA	.	.	.	.	.	.	.
.	.	.	.	2F#i	.	.	.
=65	=65	=65	=65	=65	=65	=65	=65
0.GGl	-tris.	0.r	.	0.Gl	-tris.	0.r	.
!!LO:LB:i:g=z
=66||	=66||	=66||	=66||	=66||	=66||	=66||	=66||
*>C	*>C	*>C	*>C	*>C	*>C	*>C	*>C
*clefF4	*	*clefGv2	*	*clefGv2	*	*clefG2	*
*k[b-e-]	*	*k[b-]	*	*k[b-]	*	*k[b-]	*
*M2/1	*	*M2/1	*	*M2/1	*	*M2/1	*
*met(C|)	*	*met(C)	*	*met(C|)	*	*met(C|)	*
*MM400	*	*MM400	*	*MM400	*	*MM400	*
!!!OMD: Qui tollis
!!section: Qui tollis
*	*	*rscale:1/8	*	*	*	*	*
!	!	!LO:TX:X=-40:Z=18:t=T&colon; "In triplo crescit sed clausulando decrescit"	!	!	!	!	!
!	!	!LO:TX:X=-40:Z=3:t=[aug. at decreasing levels in successive phrases, beginning with 3 levels of aug.]	!	!	!	!	!
!	!	!LO:N:vis=0	!	!	!	!	!
0B-	Qui	0r	.	0r	.	1.d	Qui
.	.	.	.	.	.	2e	.
=67	=67	=67-	=67	=67	=67	=67	=67
0A	.	0ryy	.	0r	.	1f	.
.	.	.	.	.	.	1f	tol-
=68	=68	=68-	=68	=68	=68	=68	=68
0G	.	0ryy	.	1.G	Qui	1.g	-lis
.	.	.	.	2A	.	4f	.
.	.	.	.	.	.	4e	.
=69	=69	=69-	=69	=69	=69	=69	=69
0G	tol-	0ryy	.	1B-	.	0d	.
.	.	.	.	1B-	tol-	.	.
=70	=70	=70-	=70	=70	=70	=70	=70
0C	-lis	0ryy	.	1.c	-lis	1r	.
.	.	.	.	.	.	1a	pec-
.	.	.	.	4B-	.	.	.
.	.	.	.	4A	.	.	.
=71	=71	=71-	=71	=71	=71	=71	=71
0r	.	0ryy	.	0G	.	1.b-	-ca-
.	.	.	.	.	.	2a	.
=72	=72	=72-	=72	=72	=72	=72	=72
1GG	pec-	0ryy	.	1r	.	1.b-	.
1AA	.	.	.	1c	pec-	.	.
.	.	.	.	.	.	4a	.
.	.	.	.	.	.	4g	.
=73	=73	=73-	=73	=73	=73	=73	=73
1.BB-	-ca-	0ryy	.	1.d	-ca-	0f	-ta
2AA	.	.	.	2c	.	.	.
=74	=74	=74	=74	=74	=74	=74	=74
!	!	!LO:N:vis=0	!	!	!	!	!
1.BB-	.	0r	.	1.d	.	1r	.
.	.	.	.	.	.	[1f	mun-
2C	.	.	.	4c	.	.	.
.	.	.	.	4B-	.	.	.
=75	=75	=75-	=75	=75	=75	=75	=75
0D	.	0ryy	.	0A	-ta	2f]	.
.	.	.	.	.	.	2e	.
.	.	.	.	.	.	1f	.
=76	=76	=76-	=76	=76	=76	=76	=76
0GG	-ta	0ryy	.	1r	.	1.g	.
.	.	.	.	[1B-	mun-	.	.
.	.	.	.	.	.	4f	.
.	.	.	.	.	.	4e	.
=77	=77	=77-	=77	=77	=77	=77	=77
0G	mun-	0ryy	.	2B-]	.	1.d	.
.	.	.	.	2A	.	.	.
.	.	.	.	1B-	.	.	.
.	.	.	.	.	.	4c	.
.	.	.	.	.	.	4B-	.
=78	=78	=78-	=78	=78	=78	=78	=78
0F	.	0ryy	.	1.c	.	1A	.
.	.	.	.	.	.	[1d	.
.	.	.	.	4B-	.	.	.
.	.	.	.	4A	.	.	.
=79	=79	=79-	=79	=79	=79	=79	=79
0G	-di,	0ryy	.	1.G	.	2d]	.
.	.	.	.	.	.	2c	.
.	.	.	.	.	.	[1B-	.
.	.	.	.	4F	.	.	.
.	.	.	.	4E	.	.	.
=80	=80	=80-	=80	=80	=80	=80	=80
1r	.	0ryy	.	1D	.	2B-]	.
.	.	.	.	.	.	4A	.
.	.	.	.	.	.	4G	.
1GG	mun-	.	.	[1G	.	1B-	.
=81	=81	=81-	=81	=81	=81	=81	=81
0D	.	0ryy	.	1G]	.	0A	.
.	.	.	.	1F#i	.	.	.
=82	=82	=82	=82	=82	=82	=82	=82
!	!	!LO:N:vis=0	!	!	!	!	!
1GG	.	0r	.	[0G	-di,	0G	-di,
[1C	.	.	.	.	.	.	.
=83	=83	=83-	=83	=83	=83	=83	=83
2C]	.	0ryy	.	0G]	.	1r	.
2BB-	.	.	.	.	.	.	.
1C	.	.	.	.	.	1G	mi-
=84	=84	=84-	=84	=84	=84	=84	=84
0GG	-di,	0ryy	.	1r	.	1.B-	.
!	!	!	!	!LO:TX:Z=12:t=MS&colon; e	!	!	!
.	.	.	.	1D	mi-	.	.
.	.	.	.	.	.	2G	.
=85	=85	=85-	=85	=85	=85	=85	=85
1r	.	0ryy	.	1.G	.	1.B-	.
1GG	mun-	.	.	.	.	.	.
.	.	.	.	4F	.	2c	.
.	.	.	.	4E	.	.	.
=86	=86	=86-	=86	=86	=86	=86	=86
1D	.	0ryy	.	1F	.	1d	.
1GG	-di,	.	.	1G	-se-	1e	-se-
=87	=87	=87-	=87	=87	=87	=87	=87
1r	.	0ryy	.	1A	-re-	1f	-re-
[1G	mi-	.	.	1B-	.	[1d	.
=88	=88	=88-	=88	=88	=88	=88	=88
1G]	.	0ryy	.	0G	.	1d]	.
1E-	-se-	.	.	.	.	[1g	.
=89	=89	=89-	=89	=89	=89	=89	=89
1C	-re-	0ryy	.	1c	.	2g]	.
.	.	.	.	.	.	2e	.
1D	.	.	.	1A	.	1f	.
=90	=90	=90	=90	=90	=90	=90	=90
!	!	!LO:N:vis=0	!	!	!	!	!
1GG	-re	0r	.	1B-	.	1g	.
1r	.	.	.	1c	-re	1a	-re
=91	=91	=91-	=91	=91	=91	=91	=91
1BB-	no-	0ryy	.	1d	no-	1f	no-
[1E-	.	.	.	1B-	.	[1g	.
=92	=92	=92-	=92	=92	=92	=92	=92
1E-]	.	0ryy	.	1.c	.	1g]	.
[1F	.	.	.	.	.	[1a	.
.	.	.	.	2B-	.	.	.
=93	=93	=93-	=93	=93	=93	=93	=93
2F]	.	0ryy	.	2A	.	2a]	.
2E-	.	.	.	2G	.	2b-	.
[1F	.	.	.	1F	.	[1cc	.
=94	=94	=94-	=94	=94	=94	=94	=94
2F]	.	0ryy	.	0c	.	2cc]	.
2E-	.	.	.	.	.	2b-	.
1C	.	.	.	.	.	2a	.
.	.	.	.	.	.	2g	.
=95	=95	=95-	=95	=95	=95	=95	=95
0D	-bis.	0ryy	.	1A	.	0f	-bis.
.	.	.	.	[1d	.	.	.
=96	=96	=96-	=96	=96	=96	=96	=96
0G	.	0ryy	.	2d]	.	1r	.
.	.	.	.	2c	.	.	.
.	.	.	.	2B-	.	1b-	Qui
.	.	.	.	2A	.	.	.
=97	=97	=97-	=97	=97	=97	=97	=97
1r	.	0ryy	.	0G	-bis.	1b-	tol-
1GG	Qui	.	.	.	.	1b-	-lis
=98	=98	=98	=98	=98	=98	=98	=98
!	!	!LO:N:vis=0	!	!	!	!	!
1C	tol-	0r	.	1r	.	1a	pec-
1BB-	.	.	.	1B-	Qui	[1g	-ca-
=99	=99	=99-	=99	=99	=99	=99	=99
0GG	-lis	0ryy	.	1B-	tol-	2g]	.
.	.	.	.	.	.	2f	.
.	.	.	.	1B-	-lis	[1d	.
=100	=100	=100-	=100	=100	=100	=100	=100
0r	.	0ryy	.	1B-	pec-	1d]	.
.	.	.	.	1A	.	[1c	.
=101	=101	=101-	=101	=101	=101	=101	=101
0r	.	0ryy	.	0F	.	1c]	.
.	.	.	.	.	.	1f	.
=102	=102	=102-	=102	=102	=102	=102	=102
0r	.	0ryy	.	1.G	-ca-	1e	.
.	.	.	.	.	.	[1d	.
.	.	.	.	2F	.	.	.
=103	=103	=103-	=103	=103	=103	=103	=103
0r	.	0ryy	.	0D	-ta	2d]	.
.	.	.	.	.	.	2c	.
.	.	.	.	.	.	[1A	-ta
=104	=104	=104-	=104	=104	=104	=104	=104
0r	.	0ryy	.	1.F	mun-	1A]	.
.	.	.	.	.	.	[1c	mun-
.	.	.	.	2E	.	.	.
=105	=105	=105-	=105	=105	=105	=105	=105
0r	.	0ryy	.	0C	.	2c]	.
.	.	.	.	.	.	2B-	.
.	.	.	.	.	.	[1G	.
=106	=106	=106	=106	=106	=106	=106	=106
!	!	!LO:N:vis=0	!	!	!	!	!
0r	.	0r	.	0G	.	1G]	.
.	.	.	.	.	.	1B-	.
=107	=107	=107-	=107	=107	=107	=107	=107
0r	.	0ryy	.	1F	.	1A	.
.	.	.	.	[1G	.	1G	.
=108	=108	=108-	=108	=108	=108	=108	=108
0GG	mun-	0ryy	.	0G]	.	1B-	.
.	.	.	.	.	.	[1e-i	.
=109	=109	=109-	=109	=109	=109	=109	=109
0BB-	.	0ryy	.	1F	.	2e-]	.
.	.	.	.	.	.	2d	.
.	.	.	.	1D	.	[1d	.
=110	=110	=110-	=110	=110	=110	=110	=110
0C	.	0ryy	.	0E-i	.	1d]	.
.	.	.	.	.	.	1c	.
=111	=111	=111-	=111	=111	=111	=111	=111
1GG	-di,	0ryy	.	[0D	-di,	0d	-di,
[1BB-	sus-	.	.	.	.	.	.
=112	=112	=112-	=112	=112	=112	=112	=112
2BB-]	.	0ryy	.	0D]	.	1r	.
2AA	.	.	.	.	.	.	.
2GG	-ci-	.	.	.	.	1f	sus-
2FF	.	.	.	.	.	.	.
=113	=113	=113-	=113	=113	=113	=113	=113
0FF	-pe	0ryy	.	1r	.	1.f	-ci-
.	.	.	.	1F	sus-	.	.
.	.	.	.	.	.	2e	.
=114	=114	=114	=114	=114	=114	=114	=114
!	!	!LO:N:vis=0	!	!	!	!	!
0r	.	0r	.	1.F	-ci-	2d	.
.	.	.	.	.	.	2c	.
.	.	.	.	.	.	1c	-pe
.	.	.	.	2E	.	.	.
=115	=115	=115-	=115	=115	=115	=115	=115
1F	de-	0ryy	.	2D	.	1r	.
.	.	.	.	2C	.	.	.
1Eni	.	.	.	1C	-pe	1g	de-
=116	=116	=116-	=116	=116	=116	=116	=116
1D	.	0ryy	.	1r	.	1f	.
1C	-pre-	.	.	1c	de-	1e	-pre-
=117	=117	=117-	=117	=117	=117	=117	=117
1GG	-ca-	0ryy	.	1B-	.	1d	-ca-
1D	-ti-	.	.	1A	-pre-	1f	-ti-
=118	=118	=118-	=118	=118	=118	=118	=118
1Eni	-o-	0ryy	.	1G	-ca-	1g	-o-
[1F	.	.	.	1c	-ti-	[1a	.
=119	=119	=119-	=119	=119	=119	=119	=119
1F]	.	0ryy	.	1d	-o-	2a]	.
.	.	.	.	.	.	2g	.
1G	.	.	.	1B-	.	[1g	.
=120	=120	=120-	=120	=120	=120	=120	=120
0D	-nem	0ryy	.	0A	-nem	1g]	.
.	.	.	.	.	.	1f	-nem
=121	=121	=121-	=121	=121	=121	=121	=121
1r	.	0ryy	.	1.G	nos-	1e	nos-
[1GG	nos-	.	.	.	.	[1d	.
.	.	.	.	2F	.	.	.
=122	=122	=122	=122	=122	=122	=122	=122
!	!	!LO:N:vis=2	!	!	!	!	!
1GG]	.	0r	.	1D	.	2d]	.
.	.	.	.	.	.	2B-	.
1C	.	.	.	1E	.	1c	.
=123	=123	=123-	=123	=123	=123	=123	=123
0D	.	0ryy	.	0F	.	0A	.
=124	=124	=124-	=124	=124	=124	=124	=124
!	!	!LO:N:vis=2	!	!	!	!	!
0GG	-tram.	[y0G	Qui	0G	-tram.	0G	-tram.
=125	=125	=125-	=125	=125	=125	=125	=125
0r	.	0G]yy	.	1r	.	0r	.
.	.	.	.	1B-	Qui	.	.
=126	=126	=126-	=126	=126	=126	=126	=126
!	!	!LO:N:vis=2	!	!	!	!	!
1G	Qui	[y0d	se-	1.B-	se-	0g	Qui
1G	se-	.	.	.	.	.	.
.	.	.	.	2A	.	.	.
=127	=127	=127-	=127	=127	=127	=127	=127
0G	-des	0d]yy	.	1G	-des	1.b-	se-
.	.	.	.	1G	ad	.	.
.	.	.	.	.	.	4a	.
.	.	.	.	.	.	4g	.
=128	=128	=128-	=128	=128	=128	=128	=128
!	!	!LO:N:vis=2	!	!	!	!	!
0D	.	[y0d	-des	1F	dex-	0a	.
.	.	.	.	1F	-te-	.	.
=129	=129	=129-	=129	=129	=129	=129	=129
0GG	.	0d]yy	.	1G	-ram	0g	-des
.	.	.	.	1G	pa-	.	.
=130	=130	=130	=130	=130	=130	=130	=130
!	!	!LO:N:vis=2	!	!	!	!	!
0r	.	[y0c	ad	0C	-tris,	1r	.
.	.	.	.	.	.	1g	ad
=131	=131	=131-	=131	=131	=131	=131	=131
0C	ad	0c]yy	.	1r	.	1g	dex-
.	.	.	.	[1c	ad	1g	-te-
=132	=132	=132-	=132	=132	=132	=132	=132
!	!	!LO:N:vis=2	!	!	!	!	!
1.F	dex-	[y0c	dex-	1c]	.	1.a	-ram
.	.	.	.	1A	dex-	.	.
4Eni	.	.	.	.	.	4g	.
4D	.	.	.	.	.	4f	.
=133	=133	=133-	=133	=133	=133	=133	=133
1C	-te-	0c]yy	.	0G	-te-	0e	.
1C	-ram	.	.	.	.	.	.
=134	=134	=134-	=134	=134	=134	=134	=134
!	!	!LO:N:vis=2	!	!	!	!	!
1.D	pa-	[y0A	-te-	0F	-ram	1.f	.
4C	.	.	.	.	.	4e	.
4BB-	.	.	.	.	.	4d	.
=135	=135	=135-	=135	=135	=135	=135	=135
0AA	-tris,	0A]yy	.	1r	.	1.c	.
.	.	.	.	[1c	pa-	.	.
.	.	.	.	.	.	2d	.
=136	=136	=136-	=136	=136	=136	=136	=136
!	!	!LO:N:vis=2	!	!	!	!	!
1r	.	[y0A	-ram	1c]	.	1e	.
!	!	!	!	!LO:TX:Z=12:t=MS&colon; b	!	!	!
1D	mi-	.	.	1A	.	[1f	pa-
=137	=137	=137-	=137	=137	=137	=137	=137
0D	-se-	0A]yy	.	0F	.	2f]	.
.	.	.	.	.	.	2d	.
.	.	.	.	.	.	1f	.
=138	=138	=138	=138	=138	=138	=138	=138
!	!	!LO:N:vis=2.	!	!	!	!	!
[0GG	-re-	[y0G	pa-	1.G	.	1e	.
.	.	.	.	.	.	[1d	.
.	.	.	.	2F	.	.	.
=139	=139	=139-	=139	=139	=139	=139	=139
0GG_	.	0G_yy	.	0D	-tris,	2d]	.
.	.	.	.	.	.	2c	.
.	.	.	.	.	.	2B-	.
.	.	.	.	.	.	2A	.
=140	=140	=140-	=140	=140	=140	=140	=140
0GG]	.	0G]yy	.	1r	.	1.B-	.
.	.	.	.	[1d	mi-	.	.
.	.	.	.	.	.	2c	.
=141	=141	=141-	=141	=141	=141	=141	=141
0D	-re	0F	.	2d]	.	0A	-tris,
.	.	.	.	2c	.	.	.
.	.	.	.	1A	-se-	.	.
=142	=142	=142-	=142	=142	=142	=142	=142
!	!	!LO:N:vis=1	!	!	!	!	!
0r	.	[y0D	-tris	1.B-	-re-	1r	.
.	.	.	.	.	.	1B-	mi-
.	.	.	.	4A	.	.	.
.	.	.	.	4G	.	.	.
=143	=143	=143-	=143	=143	=143	=143	=143
[0F	no-	0D_yy	.	2F	.	1A	-se-
.	.	.	.	2G	.	.	.
.	.	.	.	2A	.	[1d	-re-
.	.	.	.	4G	.	.	.
.	.	.	.	4A	.	.	.
=144	=144	=144-	=144	=144	=144	=144	=144
0F_	.	0D_yy	.	2B-	.	2d]	.
.	.	.	.	1A	.	2e	.
.	.	.	.	.	.	[1f	.
.	.	.	.	[2d	.	.	.
=145	=145	=145-	=145	=145	=145	=145	=145
0F]	.	0D]yy	.	2d]	.	2f]	.
.	.	.	.	2c	.	2g	.
.	.	.	.	2A	.	2f	.
.	.	.	.	2B-	.	4e	.
.	.	.	.	.	.	4d	.
=146	=146	=146	=146	=146	=146	=146	=146
!	!	!LO:N:vis=1	!	!	!	!	!
[0G	-bis,-	[y0C	.	1.c	-re	0e	-re
.	.	.	.	4B-	.	.	.
.	.	.	.	4A	.	.	.
=147	=147	=147-	=147	=147	=147	=147	=147
0G]	.	0C_yy	.	1G	.	1r	.
.	.	.	.	[1c	no-	[1g	no-
=148	=148	=148-	=148	=148	=148	=148	=148
1r	.	0C_yy	.	2c]	.	2g]	.
.	.	.	.	2B-	.	2f	.
1G	-mi-	.	.	[1c	.	2e	.
.	.	.	.	.	.	2d	.
=149	=149	=149-	=149	=149	=149	=149	=149
0G	-se-	0C]yy	.	2c]	.	1e	.
.	.	.	.	2B-	.	.	.
.	.	.	.	2A	.	[1c	.
.	.	.	.	2G	.	.	.
=150	=150	=150-	=150	=150	=150	=150	=150
!	!	!LO:N:vis=2	!	!	!	!	!
0A	-re-	[y0F	no-	1F	.	1c]	.
.	.	.	.	[1A	.	[1f	.
=151	=151	=151-	=151	=151	=151	=151	=151
0D	-re	0F]yy	.	1A]	.	2f]	.
.	.	.	.	.	.	2e	.
.	.	.	.	1B-	.	2d	.
.	.	.	.	.	.	2c	.
=152	=152	=152-	=152	=152	=152	=152	=152
!	!	!LO:N:vis=2	!	!	!	!	!
1C	no-	[y0G	.	1c	.	1e	.
1D	.	.	.	2B-	.	[1d	.
.	.	.	.	2A	.	.	.
=153	=153	=153-	=153	=153	=153	=153	=153
0E-	.	0G]yy	.	0G	.	2d]	.
.	.	.	.	.	.	2c	.
.	.	.	.	.	.	2c	.
.	.	.	.	.	.	2B-	.
=154	=154	=154	=154	=154	=154	=154	=154
!	!	!LO:N:vis=1	!	!	!	!	!
[0D	-bis.	[y0A	-bis.	1.F	-bis.	0d	-bis.
.	.	.	.	2G	.	.	.
=155	=155	=155-	=155	=155	=155	=155	=155
1D]	.	0A_yy	.	0A	.	1r	.
1C	Quo-	.	.	.	.	1e	Quo-
=156	=156	=156-	=156	=156	=156	=156	=156
1D	-ni-	0A_yy	.	0r	.	1.f	-ni-
1E	.	.	.	.	.	.	.
.	.	.	.	.	.	4e	.
.	.	.	.	.	.	4d	.
=157	=157	=157-	=157	=157	=157	=157	=157
!	!	!	!	!LO:TX:Z=12:t=MS&colon; d	!	!	!
0F	-am	0A]yy	.	0F	Quo-	1c	-am
.	.	.	.	.	.	1c	tu
=158	=158	=158-	=158	=158	=158	=158	=158
!	!	!LO:N:vis=1	!	!	!	!	!
0BB-	tu	[y0B-	Quo-	0F	-ni-	0d	so-
=159	=159	=159-	=159	=159	=159	=159	=159
1.E-	so-	0B-_yy	.	1G	-am	0G	-lus
.	.	.	.	[1B-	tu	.	.
2F	.	.	.	.	.	.	.
=160	=160	=160-	=160	=160	=160	=160	=160
0G	-lus	0B-_yy	.	2B-]	.	1r	.
.	.	.	.	2c	so-	.	.
.	.	.	.	1d	-lus	[1g	sanc-
=161	=161	=161-	=161	=161	=161	=161	=161
1r	.	0B-]yy	.	1G	sanc-	2g]	.
.	.	.	.	.	.	2f	.
1G	sanc-	.	.	[1d	.	1g	.
=162	=162	=162	=162	=162	=162	=162	=162
!	!	!LO:N:vis=2	!	!	!	!	!
1F	.	[y0A	-ni-	1d]	.	1a	.
1E-	.	.	.	1c	.	[1g	.
=163	=163	=163-	=163	=163	=163	=163	=163
0D	.	0A]yy	.	0d	-tus,-	2g]	.
.	.	.	.	.	.	4f#i	.
.	.	.	.	.	.	4e	.
.	.	.	.	.	.	1f#i	.
=164	=164	=164-	=164	=164	=164	=164	=164
!	!	!LO:N:vis=2.	!	!	!	!	!
[0GG	-tus.	[y0G	-am	1r	.	1g	-tus,-
.	.	.	.	1d	-sanc-	1r	.
=165	=165	=165-	=165	=165	=165	=165	=165
0GG]	.	0G_yy	.	1.B-	.	1b-	-Quo-
.	.	.	.	.	.	1b-	-ni-
.	.	.	.	2c	.	.	.
=166	=166	=166-	=166	=166	=166	=166	=166
1r	.	0G]yy	.	[0d	.	0b-	-am
1GG	Tu	.	.	.	.	.	.
=167	=167	=167-	=167	=167	=167	=167	=167
1.D	so-	0F	tu	1d]	.	1a	tu
.	.	.	.	2c	.	1a	so-
2Eni	.	.	.	2B-	.	.	.
=168	=168	=168-	=168	=168	=168	=168	=168
!	!	!LO:N:vis=2	!	!	!	!	!
1.F	.	[y0D	so-	[0A	-tus.	1a	-lus
.	.	.	.	.	.	1a	sanc-
2Eni	.	.	.	.	.	.	.
=169	=169	=169-	=169	=169	=169	=169	=169
1.D	.	0D]yy	.	0A]	.	1.f	.
2C	.	.	.	.	.	4e	.
.	.	.	.	.	.	4d	.
=170	=170	=170	=170	=170	=170	=170	=170
!	!	!LO:N:vis=1	!	!	!	!	!
[0AA	-lus	[y0E	-lus	1r	.	0c	-tus.
.	.	.	.	[1A	Tu	.	.
=171	=171	=171-	=171	=171	=171	=171	=171
0AA_	.	0E_yy	.	1A]	.	1r	.
.	.	.	.	1A	so-	1A	Tu
=172	=172	=172-	=172	=172	=172	=172	=172
0AA_	.	0E_yy	.	1.A	-lus	1.c	so-
.	.	.	.	2B-	.	2d	.
=173	=173	=173-	=173	=173	=173	=173	=173
0AA]	.	0E]yy	.	1.c	do-	0e	.
.	.	.	.	4B-	.	.	.
.	.	.	.	4c	.	.	.
=174	=174	=174	=174	=174	=174	=174	=174
*	*	*rscale:1/4	*	*	*	*	*
!	!	!LO:TX:Z=12:t=Two levels of augmentation	!	!	!	!	!
!	!	!LO:N:vis=1	!	!	!	!	!
1r	.	[y0D	.	1.d	-mi-	1A	-lus
[1A	do-	.	.	.	.	[1f	do-
.	.	.	.	4c	.	.	.
.	.	.	.	4B-	.	.	.
=175	=175	=175-	=175	=175	=175	=175	=175
2A]	.	0D]yy	.	0A	-nus.	2f]	.
2G	.	.	.	.	.	2e	.
1F	-mi-	.	.	.	.	[1d	.
=176	=176	=176-	=176	=176	=176	=176	=176
0Eni	-nus.	0r	.	1r	.	1d]	.
.	.	.	.	1G	Tu	1c#i	-mi-
=177	=177	=177-	=177	=177	=177	=177	=177
0r	.	0D	Tu	1A	so-	0d	-nus.
.	.	.	.	1B-	.	.	.
=178	=178	=178	=178	=178	=178	=178	=178
[0D	Tu	0A	so-	1A	.	1r	.
.	.	.	.	[1d	.	1f	Tu
=179	=179	=179-	=179	=179	=179	=179	=179
1D]	.	0A	-lus	2d]	.	1f	so-
.	.	.	.	2c	.	.	.
1F	so-	.	.	1A	.	1f	-lus
=180	=180	=180-	=180	=180	=180	=180	=180
1C	-lus	0c	al-	1G	-lus	1e	al-
[1F	al-	.	.	1F	.	[1a	-tis-
=181	=181	=181-	=181	=181	=181	=181	=181
2F]	.	0c	-tis-	1r	.	1a]	.
2Eni	.	.	.	.	.	.	.
[1C	-tis-	.	.	[1c	al-	[1g	.
=182	=182	=182	=182	=182	=182	=182	=182
!	!	!LO:N:vis=1	!	!	!	!	!
1C]	.	[y0G	-si-	1c]	.	1g]	.
!	!	!	!	!LO:TX:Z=12:t=MS&colon; f'	!	!	!
1GG	.	.	.	[1d	-tis-	1g	-si-
=183	=183	=183-	=183	=183	=183	=183	=183
1BB-	.	0G]yy	.	1d]	.	1d	.
1C	-si-	.	.	1c	-si-	1e	.
=184	=184	=184-	=184	=184	=184	=184	=184
!	!	!LO:N:vis=1	!	!	!	!	!
0D	-mus,	[y0F	-mus,	0A	-mus,	0f	-mus,
=185	=185	=185-	=185	=185	=185	=185	=185
0r	.	0F]yy	.	0D	.	1r	.
.	.	.	.	.	.	[1a	Je-
=186	=186	=186	=186	=186	=186	=186	=186
!	!	!LO:N:vis=1	!	!	!	!	!
[0F	Je-	[y0A	Je-	0r	.	2a]	.
.	.	.	.	.	.	2b-	.
.	.	.	.	.	.	[1cc	.
=187	=187	=187-	=187	=187	=187	=187	=187
0F]	.	0A]yy	.	0r	.	2cc]	.
.	.	.	.	.	.	2b-	.
.	.	.	.	.	.	2a	.
.	.	.	.	.	.	2g	.
=188	=188	=188-	=188	=188	=188	=188	=188
!	!	!LO:N:vis=1	!	!	!	!	!
0G	.	[y0d	.	0r	.	1.b-	.
.	.	.	.	.	.	4a	.
.	.	.	.	.	.	4g	.
=189	=189	=189-	=189	=189	=189	=189	=189
0D	-su	0d]yy	.	[0A	Je-	0f	-su
=190	=190	=190	=190	=190	=190	=190	=190
0r	.	0c	.	0A]	.	1r	.
.	.	.	.	.	.	1e	Chri-
=191	=191	=191-	=191	=191	=191	=191	=191
0D	Chri-	0A	-su	0F	-su	1d	.
.	.	.	.	.	.	1f	.
=192	=192	=192-	=192	=192	=192	=192	=192
!	!	!LO:N:vis=1	!	!	!	!	!
[0GG	.	[y0B-	Chri-	0G	.	2g	.
.	.	.	.	.	.	1b-	.
.	.	.	.	.	.	2a	.
=193	=193	=193-	=193	=193	=193	=193	=193
0GG]	.	0B-]yy	.	[0d	Chri-	2b-	.
.	.	.	.	.	.	1g	.
.	.	.	.	.	.	2f	.
=194	=194	=194	=194	=194	=194	=194	=194
*	*	*rscale:1/2	*	*	*	*	*
!	!	!LO:TX:Z=12:t=One level of augmentation	!	!	!	!	!
0D	-ste,	0A	-ste,	0d]	.	1a	-ste,
.	.	.	.	.	.	1a	Je-
=195	=195	=195-	=195	=195	=195	=195	=195
0r	.	1r	.	0c	.	1cc	-su
.	.	1A	Je-	.	.	1cc	Chri-
=196	=196	=196	=196	=196	=196	=196	=196
[0C	Je-	1c	-su	[0e-	.	0g	-ste,
.	.	1c	Chri-	.	.	.	.
=197	=197	=197-	=197	=197	=197	=197	=197
1C]	.	0G	-ste,	1e-]	.	1r	.
[1G	.	.	.	[1d	.	[1b-	Je-
=198	=198	=198	=198	=198	=198	=198	=198
2G]	.	0d	Je-	2d]	.	2b-]	.
2F	.	.	.	2c	.	2a	.
1D	-su	.	.	2B-	.	1f	.
.	.	.	.	2A	.	.	.
=199	=199	=199-	=199	=199	=199	=199	=199
1r	.	0e-	.	0c	-ste,	1.g	.
1C	Chri-	.	.	.	.	.	.
.	.	.	.	.	.	2a	.
=200	=200	=200	=200	=200	=200	=200	=200
2D	.	0d	.	1.A	Je-	1.f	.
2E-	.	.	.	.	.	.	.
2F	.	.	.	.	.	.	.
2G	.	.	.	2B-	.	2d	.
=201	=201	=201-	=201	=201	=201	=201	=201
1A	.	1c	.	1c	.	1e	.
1D	.	1d	-su	1A	-su	[1d	-su
=202	=202	=202	=202	=202	=202	=202	=202
1G	.	1B-	Chri-	1B-	Chri-	1d]	.
1E-	.	1G	.	1c	.	[1g	Chri-
=203	=203	=203-	=203	=203	=203	=203	=203
0D	.	0A	.	0d	.	1g]	.
.	.	.	.	.	.	1f#i	.
=204	=204	=204	=204	=204	=204	=204	=204
*	*	*	*	*^	*	*	*
0GGl	-ste.	0Gl	-ste.	0B-l\	0dl/	-ste.	0gl	-ste.
*	*	*	*	*v	*v	*	*	*
!!LO:LB:i:g=z
=205||	=205||	=205||	=205||	=205||	=205||	=205||	=205||
*>D	*>D	*>D	*>D	*>D	*>D	*>D	*>D
*clefF4	*	*clefGv2	*	*clefGv2	*	*clefG2	*
*k[b-e-]	*	*k[b-]	*	*k[b-]	*	*k[b-]	*
*M3/1	*	*M3/1	*	*M3/1	*	*M3/1	*
*met(O)	*	*met(C.)	*	*met(O)	*	*met(O)	*
*MM300	*	*MM300	*	*MM300	*	*MM300	*
!!!OMD: Cum sancto
!!!section: Cum sancto
*	*	*rscale:1/2	*	*	*	*	*
!	!	!LO:TX:Z=12:t=Crescat in duplum idem [one level of aug.]	!	!	!	!	!
0D	Cum	0.r	.	0A	Cum	0.f	Cum
1D	sanc-	.	.	1A	sanc-	.	.
=206	=206	=206-	=206	=206	=206	=206	=206
1GG	-to,	0.r	.	1G	.	1.g	sanc-
1r	.	.	.	1B-	.	.	.
.	.	.	.	.	.	2f	.
2AA	sanc-	.	.	2c	.	2e	.
2BB-	.	.	.	2B-	.	2d	.
=207	=207	=207	=207	=207	=207	=207	=207
2C	.	0.r	.	2.G	.	2e	.
2GG	.	.	.	.	.	1d	.
.	.	.	.	8FL	.	.	.
.	.	.	.	8EJ	.	.	.
2.BB-	.	.	.	2D	.	.	.
.	.	.	.	1G	.	4c	.
4C	.	.	.	.	.	4B-	.
1D	.	.	.	.	.	1A	.
.	.	.	.	2F#i	.	.	.
=208	=208	=208-	=208	=208	=208	=208	=208
1GG	-to	0.r	.	0G	-to	1G	-to
2r	.	.	.	.	.	2r	.
2G	spi-	.	.	.	.	2d	spi-
2A	.	.	.	2r	.	2c	.
[2F	.	.	.	2D	spi-	[2f	.
=209	=209	=209	=209	=209	=209	=209	=209
2F]	.	0.r	.	1.F	.	4f]	.
.	.	.	.	.	.	4e	.
2BB-	.	.	.	.	.	4d	.
.	.	.	.	.	.	4c	.
2D	.	.	.	.	.	2d	.
2E-	.	.	.	2E-i	.	1c	.
1F	-ri-	.	.	1D	-ri-	.	.
.	.	.	.	.	.	2Bni	-ri-
=210	=210	=210-	=210	=210	=210	=210	=210
2G	-tu,	0.r	.	1C	-tu,	1c	-tu,
2E-	.	.	.	.	.	.	.
1D	.	.	.	1r	.	1r	.
2C	.	.	.	1c	in	1g	in
4BB-	.	.	.	.	.	.	.
4AA	.	.	.	.	.	.	.
=211	=211	=211	=211	=211	=211	=211	=211
1GG	.	0.G	Cum	2.d	glo-	1.g	glo-
.	.	.	.	4c	.	.	.
1r	.	.	.	2B-	.	.	.
.	.	.	.	2A	.	2f	.
1C	in	.	.	2.G	.	2e	.
.	.	.	.	.	.	2d	.
.	.	.	.	8FL	.	.	.
.	.	.	.	8EJ	.	.	.
=212	=212	=212-	=212	=212	=212	=212	=212
2BB-	glo-	1G	sanc-	2D	.	2d	.
2C	.	.	.	2.G	.	2.e	.
1GG	.	0G	-to	.	.	.	.
.	.	.	.	4F	.	4d	.
.	.	.	.	2D	.	1d	.
1C	-ri-	.	.	1E	-ri-	.	.
.	.	.	.	.	.	2c	-ri-
=213	=213	=213	=213	=213	=213	=213	=213
2.BB-	.	0B-	spi-	1D	-a	1d	-a
4C	.	.	.	.	.	.	.
2E-	.	.	.	2r	.	2r	.
2D	.	.	.	2F	de-	2f	de-
1C	.	1c	-ri-	2G	.	2e	.
.	.	.	.	2A	.	[2g	.
=214	=214	=214-	=214	=214	=214	=214	=214
1BB-	-a	1d	-tu,	2.B-	.	4g]	.
.	.	.	.	.	.	4f	.
.	.	.	.	.	.	1d	-i
.	.	.	.	4A	.	.	.
2r	.	1B-	.	2G	-i	.	.
2E-	de-	.	.	2.B-	pa-	2G	pa-
1E-	-i	1G	in	.	.	2B-	.
.	.	.	.	4A	.	.	.
.	.	.	.	2G	.	2c	.
=215	=215	=215	=215	=215	=215	=215	=215
2D	pa-	0.A	glo-	2F	.	2d	.
2C	.	.	.	2E	.	2e	.
2.D	.	.	.	2D	.	2.f	.
.	.	.	.	1d	.	.	.
4E-	.	.	.	.	.	4g	.
1F	.	.	.	.	.	1a	.
.	.	.	.	2c	.	.	.
=216	=216	=216-	=216	=216	=216	=216	=216
1G	-tris.	1G	-ri-	2B-	.	1b-	.
.	.	.	.	2.d	.	.	.
0D	.	0F	.	.	.	1.a	.
.	.	.	.	4c	.	.	.
.	.	.	.	1A	.	.	.
!	!	!	!	!	!	!LO:TX:Z=12:t=MS&colon; e'	!
.	.	.	.	2D	.	[2f	.
=217	=217	=217	=217	=217	=217	=217	=217
!	!	!	!	!LO:TX:Z=12:t=MS&colon; 2 m	!	!	!
2r	.	0D	-a	2.F	.	2f]	.
2D	A-	.	.	.	.	2b-	.
.	.	.	.	4G	.	.	.
2F	.	.	.	2A	.	2a	.
2G	.	.	.	2B-	.	4g	.
.	.	.	.	.	.	4f	.
1A	.	1r	.	1c	-tris.	1e	-tris.
=218	=218	=218-	=218	=218	=218	=218	=218
2F	.	1D	de-	2.d	A-	2r	.
1.D	.	.	.	.	.	2.d	A-
.	.	.	.	4c	.	.	.
.	.	1F	.	1A	.	.	.
.	.	.	.	.	.	4c	.
.	.	.	.	.	.	2A	.
1GG	.	1G	-i	2.G	.	1B-	.
.	.	.	.	4F	.	.	.
=219	=219	=219	=219	=219	=219	=219	=219
0D	-men.	0.A	pa-	4D	.	2A	.
.	.	.	.	4E	.	.	.
.	.	.	.	1F	.	1d	.
.	.	.	.	2D	.	2f	.
2r	.	.	.	2C	.	2e	.
2D	a-	.	.	2F	.	[2d	.
=220	=220	=220-	=220	=220	=220	=220	=220
2GG	.	0.G	-tris.	2G	.	4d]	.
.	.	.	.	.	.	4c	.
2C	.	.	.	2E	.	1c	.
1GG	-men,	.	.	1D	.	.	.
.	.	.	.	.	.	2B-	.
2r	.	.	.	1C	-men,	2c	.
2G	a-	.	.	.	.	4B-	.
.	.	.	.	.	.	4A	.
=221	=221	=221	=221	=221	=221	=221	=221
1G	.	0d	A-	2r	.	2G	.
.	.	.	.	2G	a-	1g	.
1GG	.	.	.	1B-	.	.	.
.	.	.	.	.	.	2f	.
1AA	.	1c	.	1A	.	1e	.
=222	=222	=222-	=222	=222	=222	=222	=222
2BB-	.	1d	.	1D	-men,	1d	-men,
1GG	.	.	.	.	.	.	.
.	.	1B-	.	2r	.	2r	.
2.G	.	.	.	2d	a-	2G	a-
.	.	1G	.	2B-	.	2B-	.
4F	.	.	.	.	.	.	.
2E-	.	.	.	2G	.	2c	.
=223	=223	=223	=223	=223	=223	=223	=223
2D	.	0.A	.	2F	.	2d	.
2AA	.	.	.	2c	-men,	2e	.
2D	.	.	.	2r	.	2f	.
2C	.	.	.	2c	a-	2.g	.
1D	-men,	.	.	2A	.	.	.
.	.	.	.	.	.	4f#i	.
.	.	.	.	[2d	.	4f#i	.
.	.	.	.	.	.	4e	.
=224	=224	=224-	=224	=224	=224	=224	=224
2r	.	0G	-men,	2d]	.	1g	-men,
2.G	a-	.	.	2B-	.	.	.
.	.	.	.	2G	.	1.b-	a-
4F	.	.	.	.	.	.	.
2D	.	.	.	2.B-	.	.	.
1E-	.	1r	.	.	.	.	.
.	.	.	.	4c	.	.	.
.	.	.	.	2d	.	2a	.
=225	=225	=225	=225	=225	=225	=225	=225
0.D;	.	1G	a-	2B-	.	1g	.
.	.	.	.	2G	.	.	.
.	.	0d;	.	0A;	.	0f#i;	.
=226	=226	=226-	=226	=226	=226	=226	=226
0.GGl	-men.	0.dl	-men.	0.Gl	-men.	0.gl	-men.
==	==	==	==	==	==	==	==
*-	*-	*-	*-	*-	*-	*-	*-
!!!RDF**kern: l=long note in original notation
!!!RDF**kern: i=editorial accidental
!!!RDF**kern: V = start of tuplet marker
!!!RDF**kern: Z = end of tuplet marker
!!!ENC: Jesse Rodin and Emily Zazulia
!!!END: 2019/02/01/
!!!EED: Jesse Rodin
!!!EEV: 2019/02/27/
!!!ONB: Translated from MusicXML and edited on 2019/02/27/ by Craig Sapp
!!muse2ps: T^@{OPR}^u^@{ONM}{. }@{OTL}^C^@{COM}\n@{SMS}^v90,90,90,130i2c138z18l2650
